2 Export/Icons/Rounded/Home.svg

<svg xmlns="http://www.w3.org/2000/svg" xmlns:xlink="http://www.w3.org/1999/xlink" width="24" height="24" viewBox="0 0 24 24">
  <defs>
    <path id="home-a" d="M10.197852,19.655 L10.197852,14.655 L14.197852,14.655 L14.197852,19.655 C14.197852,20.205 14.647852,20.655 15.197852,20.655 L18.197852,20.655 C18.747852,20.655 19.197852,20.205 19.197852,19.655 L19.197852,12.655 L20.897852,12.655 C21.357852,12.655 21.577852,12.085 21.227852,11.785 L12.867852,4.255 C12.487852,3.915 11.907852,3.915 11.527852,4.255 L3.16785197,11.785 C2.82785197,12.085 3.03785197,12.655 3.49785197,12.655 L5.19785197,12.655 L5.19785197,19.655 C5.19785197,20.205 5.64785197,20.655 6.19785197,20.655 L9.19785197,20.655 C9.74785197,20.655 10.197852,20.205 10.197852,19.655 Z"/>
  </defs>
  <g fill="none" fill-rule="evenodd">
    <polygon points="0 0 24 0 24 24 0 24"/>
    <mask id="home-b" fill="#fff">
      <use xlink:href="#home-a"/>
    </mask>
    <use fill="#000" xlink:href="#home-a"/>
    <g fill="#000" mask="url(#home-b)">
      <rect width="24" height="24"/>
    </g>
  </g>
</svg>

<svg xmlns="http://www.w3.org/2000/svg" xmlns:xlink="http://www.w3.org/1999/xlink" width="24" height="24" viewBox="0 0 24 24">
  <defs>
    <path id="home-a" d="M10.198 19.655v-5h4v5c0 .55.45 1 1 1h3c.55 0 1-.45 1-1v-7h1.7c.46 0 .68-.57.33-.87l-8.36-7.53c-.38-.34-.96-.34-1.34 0l-8.36 7.53c-.34.3-.13.87.33.87h1.7v7c0 .55.45 1 1 1h3c.55 0 1-.45 1-1z"/>
  </defs>
  <g fill="none" fill-rule="evenodd">
    <polygon points="0 0 24 0 24 24 0 24"/>
    <mask id="home-b" fill="#fff">
      <use xlink:href="#home-a"/>
    </mask>
    <use fill="#000" xlink:href="#home-a"/>
    <g fill="#000" mask="url(#home-b)">
      <rect width="24" height="24"/>
    </g>
  </g>
</svg>
